!! 00053] TT[KA
!! Kassette von Frau Li Wenzhen, Peking - Zum Gesangsheft
!!!OTL: Shier yue jie qi
!!!ARE: Fujian
!! Ethnic Group: She
!! MM,, Seite 27, 2
!!!SCT: C1277
!!!YEM: Copyright 1995, estate of Helmut Schaffrath.
**kern
*ICvox
*Ivox
!! Mixed meters:  3/4; 4/4
*M4/4
*k[b-e-]
*B-:
{4cc
8b-
8cc
2ff
=1
*M3/4
8ff
8dd
4cc
4r}
=2
*M4/4
{4ff
4ff
4cc
4ff
=3
4cc
4b-
8cc
8dd
4ff
=4
4dd
4cc
[2b-
=5
2.b-]
4r}
=6
{4ff
4dd
4.ff
8gg
=7
4ff
4cc
4dd
4r}
=8
{4ff
4cc
4b-
4cc
=9
4ff
4dd
4cc
8.b-
16cc
=10
4dd
4cc
[2b-
=11
2.b-]
4r}
==
!!!AGN: Xiaodiao
!! Die Stuecke sind meist uebersteuert, also verzerrt.
!!    Vereinzelt Verzierungen.
!!!ONB: ESAC (Essen Associative Code) Database: CHINA
!!!AMT: irregular
!!!AIN: vox
!!!EED: Helmut Schaffrath
!!!EEV: 1.0
*-
!!!ONB: Tied note syntax fixed by Craig Sapp, 2004/05/03/
